Surfn-Breeze-Dark/48x48/mimetypes/application-vnd.iccprofile.svg

<?xml version="1.0" encoding="UTF-8" standalone="no"?>
<svg
   xmlns:dc="http://purl.org/dc/elements/1.1/"
   xmlns:cc="http://creativecommons.org/ns#"
   xmlns:rdf="http://www.w3.org/1999/02/22-rdf-syntax-ns#"
   xmlns:svg="http://www.w3.org/2000/svg"
   xmlns="http://www.w3.org/2000/svg"
   xmlns:xlink="http://www.w3.org/1999/xlink"
   xmlns:sodipodi="http://sodipodi.sourceforge.net/DTD/sodipodi-0.dtd"
   xmlns:inkscape="http://www.inkscape.org/namespaces/inkscape"
   width="64"
   viewBox="0 0 64 64"
   height="64"
   id="svg2"
   version="1.1"
   inkscape:version="0.91 r13725"
   sodipodi:docname="application-vnd.iccprofile.svg">
  <metadata
     id="metadata39">
    <rdf:RDF>
      <cc:Work
         rdf:about="">
        <dc:format>image/svg+xml</dc:format>
        <dc:type
           rdf:resource="http://purl.org/dc/dcmitype/StillImage" />
      </cc:Work>
    </rdf:RDF>
  </metadata>
  <sodipodi:namedview
     pagecolor="#ffffff"
     bordercolor="#666666"
     borderopacity="1"
     objecttolerance="10"
     gridtolerance="10"
     guidetolerance="10"
     inkscape:pageopacity="0"
     inkscape:pageshadow="2"
     inkscape:window-width="1920"
     inkscape:window-height="1025"
     id="namedview37"
     showgrid="false"
     inkscape:snap-bbox="true"
     inkscape:bbox-nodes="true"
     inkscape:zoom="8"
     inkscape:cx="14.009296"
     inkscape:cy="19.617126"
     inkscape:current-layer="svg2"
     inkscape:window-x="0"
     inkscape:window-y="26"
     inkscape:window-maximized="1">
    <inkscape:grid
       type="xygrid"
       id="grid4226" />
  </sodipodi:namedview>
  <defs
     id="defs4">
    <linearGradient
       id="a"
       y1="3"
       y2="61"
       x2="0"
       gradientUnits="userSpaceOnUse"
       gradientTransform="matrix(1 0 0-1 0 64)">
      <stop
         stop-color="#f39c12"
         id="stop7" />
      <stop
         offset="1"
         stop-color="#f89406"
         id="stop9" />
    </linearGradient>
    <linearGradient
       id="b"
       y1="61"
       y2="47"
       x2="0"
       gradientUnits="userSpaceOnUse"
       gradientTransform="matrix(1 0 0-1 0 64)">
      <stop
         stop-color="#fddda3"
         id="stop12" />
      <stop
         offset="1"
         stop-color="#fde3a7"
         id="stop14" />
    </linearGradient>
    <linearGradient
       id="c"
       y1="17"
       x1="40"
       y2="31"
       x2="54"
       gradientUnits="userSpaceOnUse">
      <stop
         stop-color="#383e51"
         id="stop17" />
      <stop
         offset="1"
         stop-color="#655c6f"
         stop-opacity="0"
         id="stop19" />
    </linearGradient>
    <linearGradient
       gradientTransform="translate(0,-1)"
       x2="54"
       gradientUnits="userSpaceOnUse"
       y2="31"
       x1="40"
       y1="17"
       id="a-3">
      <stop
         id="stop4172"
         stop-color="#060606" />
      <stop
         id="stop4174"
         stop-opacity="0"
         offset="1" />
    </linearGradient>
    <linearGradient
       gradientTransform="translate(254,-36)"
       x2="0"
       gradientUnits="userSpaceOnUse"
       y2="336.36"
       y1="392.36"
       id="b-6">
      <stop
         id="stop4177"
         stop-opacity="0"
         stop-color="#ffffff" />
      <stop
         id="stop4179"
         stop-opacity=".2"
         stop-color="#ffffff"
         offset="1" />
    </linearGradient>
    <path
       d="m312 357.36v-58h30l14 14v44h-14z"
       id="c-7" />
    <linearGradient
       gradientTransform="translate(254,-36)"
       x2="0"
       gradientUnits="userSpaceOnUse"
       y2="336.36"
       y1="392.36"
       id="b-6-3">
      <stop
         id="stop4177-6"
         stop-opacity="0"
         stop-color="#ffffff" />
      <stop
         id="stop4179-7"
         stop-opacity=".2"
         stop-color="#ffffff"
         offset="1" />
    </linearGradient>
    <linearGradient
       gradientTransform="translate(254,-36)"
       x2="0"
       gradientUnits="userSpaceOnUse"
       y2="336.36"
       y1="392.36"
       id="linearGradient4168">
      <stop
         id="stop4170"
         stop-opacity="0"
         stop-color="#ffffff" />
      <stop
         id="stop4172-5"
         stop-opacity=".2"
         stop-color="#ffffff"
         offset="1" />
    </linearGradient>
  </defs>
  <use
     id="use4186"
     xlink:href="#c-7"
     style="color:#000000;color-interpolation:sRGB;color-interpolation-filters:linearRGB;fill:#f9d24c;color-rendering:auto;image-rendering:auto;shape-rendering:auto;text-rendering:auto;fill-opacity:1"
     x="0"
     y="0"
     width="100%"
     height="100%"
     transform="translate(-302,-297.36)" />
  <g
     style="color:#000000;color-interpolation:sRGB;color-interpolation-filters:linearRGB;color-rendering:auto;image-rendering:auto;shape-rendering:auto;text-rendering:auto"
     id="g4188"
     transform="matrix(1,0,0,-1,-302,-297.36)">
    <rect
       id="rect4190"
       height="1"
       width="30"
       y="-300.35999"
       x="312"
       style="opacity:0.5;fill:#ffffff" />
    <rect
       id="rect4192"
       height="1"
       width="44"
       y="-357.35999"
       x="312"
       style="opacity:0.25" />
  </g>
  <path
     id="path4196"
     d="M 54,16 40,2 40,16 Z"
     inkscape:connector-curvature="0"
     style="opacity:0.5;fill:#ffffff;fill-rule:evenodd" />
  <path
     style="opacity:0.1;fill:url(#a-3);fill-rule:evenodd"
     id="path4198"
     d="M 40,16 54,30 54,16 Z"
     inkscape:connector-curvature="0" />
  <path
     inkscape:connector-curvature="0"
     d="m 32,21 c -1.876,7 -7,11.134 -7,15 0,3.866 3.134,7 7,7 3.866,0 7,-3.134 7,-7 0,-3.866 -5.124,-8 -7,-15 m 4.8125,11.427734 C 37.581303,33.460266 37.997636,34.712687 38,36 c 0,3.313708 -2.686292,6 -6,6 -1.284867,-0.0025 -2.535,-0.417376 -3.566406,-1.183594 C 28.947146,40.936416 29.472616,40.998005 30,41 c 3.865993,0 7,-3.134007 7,-7 -0.0028,-0.529493 -0.06574,-1.056956 -0.1875,-1.572266"
     id="path35"
     style="color:#4d4d4d;clip-rule:nonzero;display:inline;overflow:visible;visibility:visible;opacity:0.9;isolation:auto;mix-blend-mode:normal;color-interpolation:sRGB;color-interpolation-filters:linearRGB;solid-color:#000000;solid-opacity:1;fill:#ffffff;fill-opacity:1;fill-rule:evenodd;stroke-width:1;stroke-linecap:butt;stroke-linejoin:miter;stroke-miterlimit:4;stroke-dasharray:none;stroke-dashoffset:0;stroke-opacity:1;color-rendering:auto;image-rendering:auto;shape-rendering:auto;text-rendering:auto;enable-background:accumulate"
     sodipodi:nodetypes="cssscccccccc" />
  <use
     height="100%"
     width="100%"
     y="0"
     x="0"
     xlink:href="#c-7"
     id="use4202"
     style="fill:url(#b-6)"
     transform="translate(-302,-297.36)" />
</svg>

<?xml version="1.0" encoding="UTF-8" standalone="no"?>
<svg
   xmlns:dc="http://purl.org/dc/elements/1.1/"
   xmlns:cc="http://creativecommons.org/ns#"
   xmlns:rdf="http://www.w3.org/1999/02/22-rdf-syntax-ns#"
   xmlns:svg="http://www.w3.org/2000/svg"
   xmlns="http://www.w3.org/2000/svg"
   xmlns:xlink="http://www.w3.org/1999/xlink"
   xmlns:sodipodi="http://sodipodi.sourceforge.net/DTD/sodipodi-0.dtd"
   xmlns:inkscape="http://www.inkscape.org/namespaces/inkscape"
   viewBox="0 0 64 64"
   id="svg2"
   version="1.1"
   inkscape:version="0.91pre2 r"
   sodipodi:docname="color.svg"
   width="64"
   height="64">
  <metadata
     id="metadata84">
    <rdf:RDF>
      <cc:Work
         rdf:about="">
        <dc:format>image/svg+xml</dc:format>
        <dc:type
           rdf:resource="http://purl.org/dc/dcmitype/StillImage" />
        <dc:title />
      </cc:Work>
    </rdf:RDF>
  </metadata>
  <sodipodi:namedview
     pagecolor="#ffffff"
     bordercolor="#666666"
     borderopacity="1"
     objecttolerance="10"
     gridtolerance="10"
     guidetolerance="10"
     inkscape:pageopacity="0"
     inkscape:pageshadow="2"
     inkscape:window-width="1366"
     inkscape:window-height="672"
     id="namedview82"
     showgrid="true"
     inkscape:showpageshadow="false"
     inkscape:zoom="4"
     inkscape:cx="15.403945"
     inkscape:cy="21.446463"
     inkscape:window-x="-4"
     inkscape:window-y="25"
     inkscape:window-maximized="1"
     inkscape:current-layer="svg2"
     showguides="true"
     inkscape:snap-bbox="true">
    <inkscape:grid
       type="xygrid"
       id="grid3413" />
    <sodipodi:guide
       position="0,64"
       orientation="64,0"
       id="guide3482" />
    <sodipodi:guide
       position="0,0"
       orientation="0,64"
       id="guide3484" />
    <sodipodi:guide
       position="64,0"
       orientation="-64,0"
       id="guide3486" />
    <sodipodi:guide
       position="64,64"
       orientation="0,-64"
       id="guide3488" />
    <sodipodi:guide
       position="10,61"
       orientation="58,0"
       id="guide3492" />
    <sodipodi:guide
       position="10,3"
       orientation="0,44"
       id="guide3494" />
    <sodipodi:guide
       position="54,3"
       orientation="-58,0"
       id="guide3496" />
    <sodipodi:guide
       position="54,61"
       orientation="0,-44"
       id="guide3498" />
    <sodipodi:guide
       position="54,47"
       orientation="-14,0"
       id="guide4310" />
    <sodipodi:guide
       position="54,61"
       orientation="0,-14"
       id="guide4312" />
    <sodipodi:guide
       position="21,43"
       orientation="22,0"
       id="guide4250" />
    <sodipodi:guide
       position="21,21"
       orientation="0,22"
       id="guide4252" />
    <sodipodi:guide
       position="43,21"
       orientation="-22,0"
       id="guide4254" />
    <sodipodi:guide
       position="43,43"
       orientation="0,-22"
       id="guide4256" />
  </sodipodi:namedview>
  <defs
     id="defs4">
    <linearGradient
       id="linearGradient4351">
      <stop
         style="stop-color:#fddda3;stop-opacity:1"
         offset="0"
         id="stop4353" />
      <stop
         style="stop-color:#fde3a7;stop-opacity:1"
         offset="1"
         id="stop4355" />
    </linearGradient>
    <linearGradient
       id="linearGradient4300">
      <stop
         style="stop-color:#f39c12;stop-opacity:1;"
         offset="0"
         id="stop4302" />
      <stop
         style="stop-color:#f89406;stop-opacity:1"
         offset="1"
         id="stop4304" />
    </linearGradient>
    <linearGradient
       inkscape:collect="always"
       xlink:href="#linearGradient4300"
       id="linearGradient4306"
       x1="32"
       y1="61"
       x2="32"
       y2="3"
       gradientUnits="userSpaceOnUse" />
    <linearGradient
       gradientTransform="matrix(1,0,0,-1,-14,78)"
       inkscape:collect="always"
       xlink:href="#linearGradient4410"
       id="linearGradient4427"
       x1="54"
       y1="31"
       x2="40"
       y2="17"
       gradientUnits="userSpaceOnUse" />
    <linearGradient
       inkscape:collect="always"
       id="linearGradient4410">
      <stop
         style="stop-color:#383e51;stop-opacity:1"
         offset="0"
         id="stop4412" />
      <stop
         style="stop-color:#655c6f;stop-opacity:0"
         offset="1"
         id="stop4414" />
    </linearGradient>
    <linearGradient
       inkscape:collect="always"
       xlink:href="#linearGradient4351"
       id="linearGradient4357"
       x1="47"
       y1="61"
       x2="47"
       y2="47"
       gradientUnits="userSpaceOnUse" />
  </defs>
  <path
     style="fill:url(#linearGradient4306);fill-opacity:1;stroke:none"
     d="M 10 3 L 10 61 L 40 61 L 54 47 L 54 17 L 54 3 L 40 3 L 10 3 z "
     id="rect3500" />
  <rect
     style="opacity:1;fill:#2e3132;fill-opacity:0.29411765;stroke:none"
     id="rect4169"
     width="30"
     height="1"
     x="10"
     y="60" />
  <rect
     style="opacity:1;fill:#ffffff;fill-opacity:0.40983605;stroke:none"
     id="rect4236"
     width="44"
     height="1"
     x="10"
     y="3" />
  <path
     style="fill:url(#linearGradient4357);fill-opacity:1;fill-rule:evenodd;stroke:none;stroke-width:1px;stroke-linecap:butt;stroke-linejoin:miter;stroke-opacity:1"
     d="M 54,47 40,61 40,47 Z"
     id="path4314"
     inkscape:connector-curvature="0" />
  <path
     inkscape:connector-curvature="0"
     id="path4320"
     d="M 26,61 40,47 40,61 Z"
     style="opacity:0.2;fill:url(#linearGradient4427);fill-opacity:1;fill-rule:evenodd;stroke:none;stroke-width:1px;stroke-linecap:butt;stroke-linejoin:miter;stroke-opacity:1" />
  <path
     style="color:#000000;text-decoration:none;text-decoration-line:none;text-decoration-style:solid;text-decoration-color:#000000;clip-rule:nonzero;display:inline;overflow:visible;visibility:visible;opacity:1;isolation:auto;mix-blend-mode:normal;color-interpolation:sRGB;color-interpolation-filters:linearRGB;solid-color:#000000;solid-opacity:1;fill:#fddda3;fill-opacity:1;fill-rule:nonzero;stroke:none;stroke-width:1;stroke-linecap:butt;stroke-linejoin:miter;stroke-miterlimit:4;stroke-dasharray:none;stroke-dashoffset:0;stroke-opacity:1;color-rendering:auto;image-rendering:auto;shape-rendering:auto;text-rendering:auto;enable-background:accumulate"
     d="M 32 21 C 30.124356 28 25 32.134007 25 36 C 25 39.865993 28.134007 43 32 43 C 35.865993 43 39 39.865993 39 36 C 39 32.134007 33.875644 28 32 21 z M 36.8125 32.427734 A 6 6 0 0 1 38 36 A 6 6 0 0 1 32 42 A 6 6 0 0 1 28.433594 40.816406 A 7 7 0 0 0 30 41 A 7 7 0 0 0 37 34 A 7 7 0 0 0 36.8125 32.427734 z "
     id="path4166" />
</svg>
